<?xml version="1.0" encoding="UTF-8"?>
<map version="1.10" tiledversion="1.12.1" orientation="orthogonal" renderorder="right-down" width="28" height="31" tilewidth="16" tileheight="16" infinite="0" nextlayerid="5" nextobjectid="2">
 <tileset firstgid="1" source="PacManAssets_Map_TileSet.tsx"/>
 <tileset firstgid="248" source="PacManAssets-Items.tsx"/>
 <layer id="1" name="Wall" width="28" height="31">
  <data encoding="csv">
0,0,0,0,0,0,0,0,0,0,0,0,0,0,0,0,0,0,0,0,0,0,0,0,0,0,0,0,
115,116,116,116,116,116,116,116,116,116,116,116,116,2147483874,226,116,116,116,116,116,116,116,116,116,116,116,116,117,
134,0,0,0,0,0,0,0,0,0,0,0,0,137,139,0,0,0,0,0,0,0,0,0,0,0,0,136,
134,0,216,119,119,217,0,216,119,119,119,217,0,137,139,0,216,119,119,119,217,0,216,119,119,217,0,136,
134,0,235,157,157,236,0,235,157,157,157,236,0,235,236,0,235,157,157,157,236,0,235,157,157,236,0,136,
134,0,0,0,0,0,0,0,0,0,0,0,0,0,0,0,0,0,0,0,0,0,0,0,0,0,0,136,
134,0,216,119,119,217,0,1610612953,1610612972,0,216,119,119,119,119,119,119,217,0,3758096620,3758096601,0,216,119,119,217,0,136,
134,0,235,157,157,236,0,1610612855,1610612893,0,235,157,157,242,243,157,157,236,0,3758096541,3758096503,0,235,157,157,236,0,136,
134,0,0,0,0,0,0,1610612855,1610612893,0,0,0,0,137,139,0,0,0,0,3758096541,3758096503,0,0,0,0,0,0,136,
153,154,154,154,154,9,0,1610612855,536871154,536871049,536871049,536871147,0,137,139,0,2684354795,2684354697,2684354697,2684354802,3758096503,0,7,154,154,154,154,155,
0,0,0,0,0,134,0,1610612855,536871155,536871051,536871051,536871148,0,235,236,0,2684354796,2684354699,2684354699,2684354803,3758096503,0,136,0,0,0,0,0,
0,0,0,0,0,134,0,1610612855,1610612893,0,0,0,0,0,0,0,0,0,0,3758096541,3758096503,0,136,0,0,0,0,0,
0,0,0,0,0,134,0,1610612855,1610612893,0,121,122,122,162,164,122,122,123,0,3758096541,3758096503,0,136,0,0,0,0,0,
116,116,116,116,116,47,0,1610612952,1610612971,0,140,0,0,0,0,0,0,142,0,3758096619,3758096600,0,45,116,116,116,116,116,
0,0,0,0,0,0,0,0,0,0,140,0,0,0,0,0,0,142,0,0,0,0,0,0,0,0,0,0,
154,154,154,154,154,9,0,216,217,0,140,0,0,0,0,0,0,142,0,216,217,0,7,154,154,154,154,154,
0,0,0,0,0,134,0,137,139,0,159,160,160,160,160,160,160,161,0,137,139,0,136,0,0,0,0,0,
0,0,0,0,0,134,0,137,139,0,0,0,0,0,0,0,0,0,0,137,139,0,136,0,0,0,0,0,
0,0,0,0,0,134,0,137,139,0,216,119,119,119,119,119,119,217,0,137,139,0,136,0,0,0,0,0,
115,116,116,116,116,47,0,235,236,0,235,157,157,242,243,157,157,236,0,235,236,0,45,116,116,116,116,117,
134,0,0,0,0,0,0,0,0,0,0,0,0,137,139,0,0,0,0,0,0,0,0,0,0,0,0,136,
134,0,216,119,119,217,0,216,119,119,119,217,0,137,139,0,216,119,119,119,217,0,216,119,119,217,0,136,
134,0,235,157,242,139,0,235,157,157,157,236,0,235,236,0,235,157,157,157,236,0,137,243,157,236,0,136,
134,0,0,0,137,139,0,0,0,0,0,0,0,0,0,0,0,0,0,0,0,0,137,139,0,0,0,136,
245,119,217,0,137,139,0,216,217,0,216,119,119,119,119,119,119,217,0,216,217,0,137,139,0,216,119,1073742051,
1073742069,157,236,0,235,236,0,137,139,0,235,157,157,242,243,157,157,236,0,137,139,0,235,236,0,235,157,227,
134,0,0,0,0,0,0,137,139,0,0,0,0,137,139,0,0,0,0,137,139,0,0,0,0,0,0,136,
134,0,216,119,119,119,119,223,224,119,119,217,0,137,139,0,216,119,119,223,224,119,119,119,119,217,0,136,
134,0,235,157,157,157,157,157,157,157,157,236,0,235,236,0,235,157,157,157,157,157,157,157,157,236,0,136,
134,0,0,0,0,0,0,0,0,0,0,0,0,0,0,0,0,0,0,0,0,0,0,0,0,0,0,136,
153,154,154,154,154,154,154,154,154,154,154,154,154,154,154,154,154,154,154,154,154,154,154,154,154,154,154,155
</data>
 </layer>
 <objectgroup id="3" name="Spawns">
  <object id="1" name="PacmanSpawn" x="216.084" y="378.322">
   <point/>
  </object>
 </objectgroup>
 <layer id="2" name="Dots" width="28" height="31">
  <data encoding="csv">
0,0,0,0,0,0,0,0,0,0,0,0,0,0,0,0,0,0,0,0,0,0,0,0,0,0,0,0,
0,0,0,0,0,0,0,0,0,0,0,0,0,0,0,0,0,0,0,0,0,0,0,0,0,0,0,0,
0,256,256,256,256,256,256,256,256,256,256,256,256,0,0,256,256,256,256,256,256,256,256,256,256,256,256,0,
0,256,0,0,0,0,256,0,0,0,0,0,256,0,0,256,0,0,0,0,0,256,0,0,0,0,256,0,
0,257,0,0,0,0,256,0,0,0,0,0,256,0,0,256,0,0,0,0,0,256,0,0,0,0,257,0,
0,256,256,256,256,256,256,256,256,256,256,256,256,256,256,256,256,256,256,256,256,256,256,256,256,256,256,0,
0,256,0,0,0,0,256,0,0,256,0,0,0,0,0,0,0,0,256,0,0,256,0,0,0,0,256,0,
0,256,0,0,0,0,256,0,0,256,0,0,0,0,0,0,0,0,256,0,0,256,0,0,0,0,256,0,
0,256,256,256,256,256,256,0,0,256,256,256,256,0,0,256,256,256,256,0,0,256,256,256,256,256,256,0,
0,0,0,0,0,0,256,0,0,0,0,0,0,0,0,0,0,0,0,0,0,256,0,0,0,0,0,0,
0,0,0,0,0,0,256,0,0,0,0,0,0,0,0,0,0,0,0,0,0,256,0,0,0,0,0,0,
0,0,0,0,0,0,256,0,0,0,0,0,0,0,0,0,0,0,0,0,0,256,0,0,0,0,0,0,
0,0,0,0,0,0,256,0,0,0,0,0,0,0,0,0,0,0,0,0,0,256,0,0,0,0,0,0,
0,0,0,0,0,0,256,0,0,0,0,0,0,0,0,0,0,0,0,0,0,256,0,0,0,0,0,0,
0,0,0,0,0,0,256,0,0,0,0,0,0,0,0,0,0,0,0,0,0,256,0,0,0,0,0,0,
0,0,0,0,0,0,256,0,0,0,0,0,0,0,0,0,0,0,0,0,0,256,0,0,0,0,0,0,
0,0,0,0,0,0,256,0,0,0,0,0,0,0,0,0,0,0,0,0,0,256,0,0,0,0,0,0,
0,0,0,0,0,0,256,0,0,0,0,0,0,0,0,0,0,0,0,0,0,256,0,0,0,0,0,0,
0,0,0,0,0,0,256,0,0,0,0,0,0,0,0,0,0,0,0,0,0,256,0,0,0,0,0,0,
0,0,0,0,0,0,256,0,0,0,0,0,0,0,0,0,0,0,0,0,0,256,0,0,0,0,0,0,
0,256,256,256,256,256,256,256,256,256,256,256,256,0,0,256,256,256,256,256,256,256,256,256,256,256,256,0,
0,256,0,0,0,0,256,0,0,0,0,0,256,0,0,256,0,0,0,0,0,256,0,0,0,0,256,0,
0,256,0,0,0,0,256,0,0,0,0,0,256,0,0,256,0,0,0,0,0,256,0,0,0,0,256,0,
0,257,256,256,0,0,256,256,256,256,256,256,256,0,0,256,256,256,256,256,256,256,0,0,256,256,257,0,
0,0,0,256,0,0,256,0,0,256,0,0,0,0,0,0,0,0,256,0,0,256,0,0,256,0,0,0,
0,0,0,256,0,0,256,0,0,256,0,0,0,0,0,0,0,0,256,0,0,256,0,0,256,0,0,0,
0,256,256,256,256,256,256,0,0,256,256,256,256,0,0,256,256,256,256,0,0,256,256,256,256,256,256,0,
0,256,0,0,0,0,0,0,0,0,0,0,256,0,0,256,0,0,0,0,0,0,0,0,0,0,256,0,
0,256,0,0,0,0,0,0,0,0,0,0,256,0,0,256,0,0,0,0,0,0,0,0,0,0,256,0,
0,256,256,256,256,256,256,256,256,256,256,256,256,256,256,256,256,256,256,256,256,256,256,256,256,256,256,0,
0,0,0,0,0,0,0,0,0,0,0,0,0,0,0,0,0,0,0,0,0,0,0,0,0,0,0,0
</data>
 </layer>
</map>
